pro/src/icons/full-hide.svg

<svg width="48" height="48" viewBox="0 0 48 48" fill="none" xmlns="http://www.w3.org/2000/svg">
  <g id="icon" fill="currentColor">
    <path fill-rule="evenodd" clip-rule="evenodd" d="M40.2669 9.64938C40.6574 9.27206 40.6574 8.66031 40.2669 8.28299C39.8763 7.90567 39.2432 7.90567 38.8526 8.28299L33.9025 13.0658C30.9843 11.2982 27.6136 10 24 10C18.1338 10 12.9079 13.4213 9.21841 16.7175C7.36036 18.3776 5.85913 20.0353 4.82201 21.278C4.3029 21.9 3.89861 22.4198 3.62257 22.7863C3.48452 22.9695 3.37844 23.1146 3.30602 23.2151C3.2698 23.2654 3.24199 23.3045 3.22279 23.3317L3.20047 23.3634L3.19421 23.3724L3.19166 23.3761C2.93616 23.7452 2.9361 24.2546 3.19157 24.6238L3.19384 24.627L3.19934 24.6349L3.21881 24.6627C3.23553 24.6864 3.2597 24.7205 3.29116 24.7643C3.35407 24.8518 3.44615 24.9783 3.56607 25.1385C3.80584 25.4589 4.15721 25.9148 4.60944 26.4652C5.51309 27.565 8.04967 30.0045 9.68149 31.5385L10.0824 31.8483C10.9338 32.5063 11.7424 33.1314 12.5325 33.713L7.73259 38.3506C7.34207 38.7279 7.34207 39.3396 7.73259 39.717C8.12312 40.0943 8.75628 40.0943 9.1468 39.717L14.169 34.8646C14.1862 34.876 14.2033 34.8874 14.2205 34.8988L18.3022 30.9682C18.2841 30.9534 18.2661 30.9385 18.2481 30.9235L21.8937 27.4012C21.9166 27.4154 21.9397 27.4294 21.9629 27.4432L25.0107 24.5082C24.9876 24.491 24.9649 24.4735 24.9424 24.4556L31.079 18.5266C31.0997 18.5527 31.1202 18.5789 31.1407 18.6053L35.6798 14.2342C35.6494 14.2127 35.6189 14.1911 35.5884 14.1696L40.2669 9.64938ZM24 15C26.0408 15 28.0817 15.7832 29.7027 17.1235L24.0033 22.6301C24.0011 22.587 24 22.5436 24 22.5C24 21.5128 24.5722 20.6593 25.403 20.2529C24.9664 20.0894 24.4937 20 24 20C21.7909 20 20 21.7909 20 24C20 24.7236 20.1921 25.4022 20.5281 25.9878L16.8824 29.5103C15.7023 27.9879 15 26.0763 15 24C15 19.0277 19.5 15 24 15Z" />
    <path d="M38.5015 16.4697L32.7871 22.0742C32.9259 22.6899 33 23.3335 33 24C33 29.1922 28.9723 33 24 33C23.2763 33 22.5726 32.9147 21.8984 32.7535L17.753 36.8191C19.5767 37.5698 21.572 38 24 38C29.8662 38 34.6289 34.8347 38.3184 31.5385C40.1765 29.8784 42.1409 27.9647 43.178 26.722C43.6971 26.1 44.1014 25.5802 44.3774 25.2137C44.5155 25.0305 44.6216 24.8854 44.694 24.7849C44.7302 24.7346 44.758 24.6955 44.7772 24.6683L44.7995 24.6366L44.8058 24.6276L44.8077 24.6248L44.8084 24.6239C45.0639 24.2548 45.0639 23.7452 44.8084 23.3761L44.8077 23.3752L44.8058 23.3724L44.7995 23.3634L44.7772 23.3317C44.758 23.3045 44.7302 23.2654 44.694 23.2151C44.6216 23.1146 44.5155 22.9695 44.3774 22.7863C44.1014 22.4198 43.6971 21.9 43.178 21.278C42.1409 20.0353 40.6397 18.3776 38.7816 16.7175C38.6892 16.635 38.5958 16.5523 38.5015 16.4697Z" />
  </g>
</svg>

<svg xmlns="http://www.w3.org/2000/svg" width="48" height="48" fill="none"><g id="icon" fill="currentColor"><path fill-rule="evenodd" d="M40.267 9.65a.943.943 0 0 0 0-1.367 1.025 1.025 0 0 0-1.414 0l-4.95 4.783C30.984 11.298 27.613 10 24 10c-5.866 0-11.092 3.421-14.782 6.718a44 44 0 0 0-5.595 6.068 25 25 0 0 0-.4.546l-.023.031-.006.01-.002.003c-.256.37-.256.879 0 1.248l.002.003.005.008.02.028q.025.036.072.101.095.133.275.375c.24.32.591.776 1.043 1.326.904 1.1 3.44 3.54 5.072 5.073l.401.31c.852.658 1.66 1.283 2.45 1.865l-4.8 4.638a.943.943 0 0 0 0 1.366c.391.377 1.024.377 1.415 0l5.022-4.852.051.034 4.082-3.93-.054-.046 3.646-3.522.069.042 3.048-2.935-.069-.052 6.137-5.93.062.08 4.539-4.372-.092-.064zM24 15c2.04 0 4.082.783 5.703 2.124l-5.7 5.506L24 22.5a2.5 2.5 0 0 1 1.403-2.247 4 4 0 0 0-4.875 5.735l-3.646 3.522A8.96 8.96 0 0 1 15 24c0-4.972 4.5-9 9-9" clip-rule="evenodd"/><path d="m38.502 16.47-5.715 5.604c.139.616.213 1.26.213 1.926 0 5.192-4.028 9-9 9a9 9 0 0 1-2.102-.246l-4.145 4.065C19.577 37.57 21.572 38 24 38c5.866 0 10.629-3.165 14.318-6.462 1.858-1.66 3.823-3.573 4.86-4.816a39 39 0 0 0 1.516-1.937l.083-.117.023-.031.006-.01.002-.002v-.001c.256-.37.256-.879 0-1.248l-.002-.004-.006-.009-.023-.031-.083-.117q-.108-.152-.317-.429c-.276-.366-.68-.886-1.199-1.508a44 44 0 0 0-4.676-4.808"/></g></svg>
